icons/outline/border-left-plus.svg

<!--
category: Design
tags: [add, left, increase, enlarge, expand, include, adjust, augment, edge, boost]
unicode: "fdbc"
version: "3.0"
-->
<svg
  xmlns="http://www.w3.org/2000/svg"
  width="24"
  height="24"
  viewBox="0 0 24 24"
  fill="none"
  stroke="currentColor"
  stroke-width="2"
  stroke-linecap="round"
  stroke-linejoin="round"
>
  <path d="M4 20v-16m4 0v.01m4 -.01v.01m4 -.01v.01m4 -.01v.01m0 3.99v.01m0 3.99v.01m0 3.99v.01m-12 3.99v.01m4 -.01v.01m4 -.01v.01m4 -.01v.01m-11 -8.01h6m-3 -3v6" />
</svg>

<!--
category: Design
tags: [add, left, increase, enlarge, expand, include, adjust, augment, edge, boost]
unicode: "fdbc"
version: "3.0"
-->
<svg
  xmlns="http://www.w3.org/2000/svg"
  width="24"
  height="24"
  viewBox="0 0 24 24"
  fill="none"
  stroke="currentColor"
  stroke-width="2"
  stroke-linecap="round"
  stroke-linejoin="round"
>
    <path d="M4 20v-16M8 4v.01M12 4v.01M16 4v.01M20 4v.01M20 8v.01M20 12v.01M20 16v.01M8 20v.01M12 20v.01M16 20v.01M20 20v.01M9 12h6M12 9v6" />
</svg>
